assets/2023/icons/pnpm_dark.svg

<svg width="16" height="16" viewBox="0 0 16 16" fill="none" xmlns="http://www.w3.org/2000/svg">
<path d="M14.9972 5.37204H10.6224V0.997314H14.9972V5.37204Z" fill="#F9AD00"/>
<path d="M10.1841 5.37204H5.80937V0.997314H10.1841V5.37204Z" fill="#F9AD00"/>
<path d="M5.37189 5.37204H0.997162V0.997314H5.37189V5.37204Z" fill="#F9AD00"/>
<path d="M14.9972 10.1843H10.6224V5.80957H14.9972V10.1843Z" fill="#F9AD00"/>
<path d="M10.1841 10.1843H5.80937V5.80957H10.1841V10.1843Z" fill="#9AA7B0"/>
<path d="M10.1841 14.9963H5.80937V10.6216H10.1841V14.9963Z" fill="#9AA7B0"/>
<path d="M14.9972 14.9963H10.6224V10.6216H14.9972V14.9963Z" fill="#9AA7B0"/>
<path d="M5.37189 14.9964H0.997162V10.6217H5.37189V14.9964Z" fill="#9AA7B0"/>
</svg>

<svg xmlns="http://www.w3.org/2000/svg" width="16" height="16" fill="none" viewBox="0 0 16 16"><path fill="#F9AD00" d="M14.997 5.372h-4.375V.997h4.375zm-4.813 0H5.81V.997h4.375zm-4.812 0H.997V.997h4.375zm9.625 4.812h-4.375V5.81h4.375z"/><path fill="#9AA7B0" d="M10.184 10.184H5.81V5.81h4.375zm0 4.812H5.81v-4.374h4.375zm4.813 0h-4.375v-4.374h4.375zm-9.625 0H.997v-4.374h4.375z"/></svg>
